X:1
T:America the Beautiful
C:Samuel Ward, Katherine Lee Bates (words)
O:USA
Z:Transcribed by Frank Nordberg - http://www.musicaviva.com
M:C
L:1/4
Q:1/4=84
K:Bb
F |: F>D D F | F>C C D | E F G A | F3 F | F>D D F | F>C C c |
=B c d G | c3 F | d>d c B | B>A A B | c A G F | B3 B | B>G G B |
B>F F F |
[1 G B F c | B3 F :|
[2 G2 B2 | F2 c2 | B4 |]
W:
W:Oh beautiful for spacious skies,
W:For amber waves of grain,
W:For purple mountain majesties
W:Above the fruited plain!
W:America! America!
W:God shed His grace on thee,
W:And crown thy good with brotherhood,
W:From sea to shining sea.
W:
W:O beautiful for patriot dream,
W:That sees beyond the years,
W:Thine alabaster cities gleam,
W:Undimmed by human tears.
W:America! America!
W:God shed His grace on thee,
W:And crown thy good with brotherhood,
W:From sea to shining sea.
